X: 10461
T: THE BEAUTIES OF THE NORTH -- Strathspey
C: By Fraser
R: strathspey
B: K\"ohler's Violin Repository, v.1, 1885 p.46 #1
F: http://www.archive.org/details/klersviolinrepos01edin
Z: 2011 John Chambers <jc:trillian.mit.edu>
M: C|
L: 1/16
K: Eb
uE2 |\
B,E3(E3F) (G3A)Bc3 | CC3(F3E) | DB,3B,4 | GE3(E3F) (G3A)Bb3 |
(.f3.d) (ed)cB e6 :| ug2 | (.f3.g)(.B3.g) (.e3.g)(.b3.g) | (.a3.g)f3e dB3B3g |
(.e3.g)(.B3.g) (ef)ga (.b3.g) | (.a3.f) (ed)cB e4 (e3g) | g3eBG3
f3BGE3 | A3(G"_>"F3)uE DB,3B,4 | (G,E3)E3A Ge3Bg3 | (.f3.d) "_D.C."(ed)cB "_Segue Reel."e6 |]

%%sep 2 1 500

